Numix-GalliumOS/64/mimetypes/application-image-psd.svg

<svg xmlns="http://www.w3.org/2000/svg" xmlns:xlink="http://www.w3.org/1999/xlink" width="64px" height="64px" viewBox="0 0 64 64" version="1.1">
<g id="surface1">
<path style=" stroke:none;fill-rule:nonzero;fill:rgb(21.960784%,63.921569%,30.588235%);fill-opacity:1;" d="M 10.671875 0 C 9.296875 0 8 1.355469 8 2.789062 L 8 61.210938 C 8 62.566406 9.375 64 10.671875 64 L 53.328125 64 C 54.625 64 56 62.566406 56 61.210938 L 56 18 L 38 0 Z M 10.671875 0 "/>
<path style=" stroke:none;fill-rule:nonzero;fill:rgb(0%,0%,0%);fill-opacity:0.196078;" d="M 42 18 L 56 32 L 56 18 Z M 42 18 "/>
<path style=" stroke:none;fill-rule:nonzero;fill:rgb(100%,100%,100%);fill-opacity:0.392157;" d="M 38 0 L 55.984375 18 L 40.757812 18 C 39.410156 18 38 16.574219 38 15.226562 Z M 38 0 "/>
<path style=" stroke:none;fill-rule:nonzero;fill:rgb(100%,100%,100%);fill-opacity:1;" d="M 23.289062 22 C 22.585938 22.066406 21.984375 22.8125 22 23.605469 L 22 40.433594 C 22.007812 41.261719 22.667969 42.007812 23.40625 42 L 40.628906 42 C 41.355469 41.984375 41.992188 41.253906 42 40.433594 L 42 23.605469 C 42.015625 22.769531 41.371094 22.007812 40.628906 22 Z M 24 24 L 40 24 L 40 35.402344 L 35.296875 30.085938 L 34.117188 31.21875 L 32.316406 32.859375 L 31.214844 31.761719 L 28.386719 27.9375 L 24 33.597656 Z M 24 24 "/>
<path style=" stroke:none;fill-rule:nonzero;fill:rgb(0%,0%,0%);fill-opacity:0.196078;" d="M 8 48 L 8 61.335938 C 8 62.632812 9.375 64 10.664062 64 L 53.335938 64 C 54.625 64 56 62.632812 56 61.335938 L 56 48 Z M 8 48 "/>
<path style=" stroke:none;fill-rule:nonzero;fill:rgb(100%,100%,100%);fill-opacity:1;" d="M 21.410156 50.949219 C 22.984375 50.949219 24.210938 51.242188 25.078125 51.816406 C 25.953125 52.382812 26.386719 53.308594 26.386719 54.601562 C 26.386719 55.902344 25.945312 56.851562 25.058594 57.433594 C 24.195312 58.007812 22.953125 58.300781 21.351562 58.300781 L 20.46875 58.300781 L 20.46875 61.984375 L 18 61.984375 L 18 51.214844 C 18.242188 51.175781 18.507812 51.132812 18.808594 51.089844 C 19.109375 51.058594 19.417969 51.03125 19.726562 51.023438 C 20.035156 51 20.335938 50.984375 20.625 50.972656 C 20.925781 50.957031 21.183594 50.949219 21.410156 50.949219 M 21.691406 52.839844 C 21.542969 52.839844 21.335938 52.839844 21.066406 52.859375 C 20.816406 52.859375 20.617188 52.867188 20.46875 52.890625 L 20.46875 56.417969 L 21.46875 56.417969 C 22.257812 56.417969 22.851562 56.277344 23.261719 56.007812 C 23.660156 55.726562 23.859375 55.25 23.859375 54.582031 C 23.859375 53.949219 23.660156 53.5 23.261719 53.242188 C 22.867188 52.976562 22.351562 52.839844 21.691406 52.839844 "/>
<path style=" stroke:none;fill-rule:nonzero;fill:rgb(100%,100%,100%);fill-opacity:1;" d="M 31.597656 60.394531 C 32.011719 60.394531 32.355469 60.359375 32.621094 60.292969 C 32.90625 60.210938 33.121094 60.101562 33.28125 59.976562 C 33.445312 59.835938 33.546875 59.675781 33.605469 59.519531 C 33.671875 59.34375 33.703125 59.160156 33.703125 58.984375 C 33.703125 58.761719 33.628906 58.566406 33.480469 58.382812 C 33.339844 58.210938 33.144531 58.058594 32.921875 57.925781 C 32.695312 57.792969 32.4375 57.667969 32.164062 57.558594 C 31.878906 57.441406 31.597656 57.335938 31.320312 57.242188 C 30.945312 57.125 30.554688 56.992188 30.152344 56.835938 C 29.753906 56.683594 29.386719 56.492188 29.054688 56.257812 C 28.726562 56.015625 28.460938 55.734375 28.253906 55.390625 C 28.035156 55.042969 27.929688 54.609375 27.929688 54.089844 C 27.929688 53.066406 28.304688 52.265625 29.054688 51.691406 C 29.8125 51.117188 30.855469 50.832031 32.179688 50.832031 C 32.9375 50.832031 33.605469 50.90625 34.164062 51.058594 C 34.738281 51.207031 35.222656 51.382812 35.605469 51.566406 L 34.886719 53.242188 C 34.554688 53.082031 34.179688 52.941406 33.761719 52.824219 C 33.363281 52.699219 32.894531 52.640625 32.363281 52.640625 C 31.046875 52.640625 30.394531 53.058594 30.394531 53.890625 C 30.394531 54.109375 30.460938 54.292969 30.59375 54.457031 C 30.730469 54.609375 30.894531 54.75 31.097656 54.882812 C 31.3125 55 31.546875 55.109375 31.796875 55.199219 C 32.0625 55.292969 32.328125 55.382812 32.578125 55.46875 C 32.972656 55.59375 33.371094 55.742188 33.78125 55.902344 C 34.214844 56.058594 34.597656 56.265625 34.945312 56.535156 C 35.304688 56.792969 35.605469 57.125 35.832031 57.527344 C 36.054688 57.910156 36.171875 58.410156 36.171875 59 C 36.171875 60.027344 35.789062 60.820312 35.03125 61.386719 C 34.28125 61.9375 33.136719 62.210938 31.597656 62.210938 C 30.570312 62.210938 29.746094 62.121094 29.128906 61.925781 C 28.519531 61.726562 28.054688 61.542969 27.746094 61.386719 L 28.46875 59.617188 C 28.828125 59.808594 29.261719 59.984375 29.753906 60.152344 C 30.261719 60.308594 30.878906 60.394531 31.597656 60.394531 "/>
<path style=" stroke:none;fill-rule:nonzero;fill:rgb(100%,100%,100%);fill-opacity:1;" d="M 40.523438 60.21875 C 40.589844 60.234375 40.65625 60.234375 40.742188 60.234375 C 40.824219 60.234375 40.898438 60.234375 40.964844 60.234375 C 41.523438 60.234375 41.992188 60.144531 42.367188 59.953125 C 42.75 59.769531 43.058594 59.511719 43.292969 59.175781 C 43.523438 58.851562 43.699219 58.46875 43.792969 58.019531 C 43.898438 57.558594 43.949219 57.058594 43.949219 56.515625 C 43.949219 56.050781 43.90625 55.59375 43.832031 55.148438 C 43.75 54.699219 43.609375 54.308594 43.40625 53.964844 C 43.207031 53.625 42.933594 53.359375 42.582031 53.15625 C 42.242188 52.941406 41.789062 52.839844 41.242188 52.839844 C 41.132812 52.839844 41.015625 52.839844 40.882812 52.859375 C 40.75 52.859375 40.625 52.867188 40.523438 52.890625 L 40.523438 60.21875 M 46.457031 56.515625 C 46.457031 57.535156 46.308594 58.394531 46.015625 59.109375 C 45.734375 59.820312 45.34375 60.394531 44.832031 60.835938 C 44.324219 61.285156 43.714844 61.609375 43.007812 61.828125 C 42.316406 62.019531 41.539062 62.117188 40.699219 62.117188 C 40.257812 62.117188 39.824219 62.101562 39.398438 62.050781 C 38.980469 62.019531 38.539062 61.953125 38.054688 61.859375 L 38.054688 51.214844 C 38.613281 51.117188 39.140625 51.039062 39.640625 51.007812 C 40.132812 50.972656 40.589844 50.949219 41.023438 50.949219 C 41.839844 50.949219 42.582031 51.058594 43.25 51.273438 C 43.933594 51.484375 44.507812 51.816406 44.976562 52.273438 C 45.441406 52.722656 45.800781 53.300781 46.058594 54 C 46.324219 54.691406 46.457031 55.535156 46.457031 56.515625 "/>
</g>
</svg>

<svg xmlns="http://www.w3.org/2000/svg" viewBox="0 0 64 64">
 <g>
  <path d="m 10.672 0 c -1.375 0 -2.672 1.355 -2.672 2.789 l 0 58.42 c 0 1.355 1.375 2.789 2.672 2.789 l 42.656 0 c 1.297 0 2.672 -1.434 2.672 -2.789 l 0 -43.21 l -18 -18 m -27.328 0" style="fill:#37a34d;fill-opacity:1;stroke:none;fill-rule:nonzero"/>
  <path d="m 42 18 l 14 14 l 0 -14 m -14 0" style="fill:#000;fill-opacity:0.196;stroke:none;fill-rule:nonzero"/>
  <path d="m 38 0 l 17.984 18 l -15.227 0 c -1.348 0 -2.758 -1.426 -2.758 -2.773 m 0 -15.227" style="fill:#fff;fill-opacity:0.392;stroke:none;fill-rule:nonzero"/>
  <path d="m 23.289 22 c -0.703 0.066 -1.305 0.813 -1.289 1.605 l 0 16.828 c 0.008 0.828 0.668 1.574 1.406 1.566 l 17.223 0 c 0.727 -0.016 1.363 -0.746 1.371 -1.566 l 0 -16.828 c 0.016 -0.836 -0.629 -1.598 -1.371 -1.605 m -16.629 2 16 0 0 11.402 -4.703 -5.316 -2.98 2.773 -3.93 -4.922 -4.387 5.66" style="fill:#fff;fill-opacity:1;stroke:none;fill-rule:nonzero"/>
  <path d="m 8 48 l 0 13.336 c 0 1.297 1.375 2.664 2.664 2.664 l 42.672 0 c 1.289 0 2.664 -1.367 2.664 -2.664 l 0 -13.336 m -48 0" style="fill:#000;fill-opacity:0.196;stroke:none;fill-rule:nonzero"/>
  <path d="m 21.41 50.949 c 1.574 0 2.801 0.293 3.668 0.867 c 0.875 0.566 1.309 1.492 1.309 2.785 c 0 1.301 -0.441 2.25 -1.328 2.832 c -0.863 0.574 -2.105 0.867 -3.707 0.867 l -0.883 0 l 0 3.684 l -2.469 0 l 0 -10.77 c 0.242 -0.039 0.508 -0.082 0.809 -0.125 c 0.301 -0.031 0.609 -0.059 0.918 -0.066 c 0.309 -0.023 0.609 -0.039 0.898 -0.051 c 0.301 -0.016 0.559 -0.023 0.785 -0.023 m 0.281 1.891 c -0.148 0 -0.355 0 -0.625 0.02 c -0.25 0 -0.449 0.008 -0.598 0.031 l 0 3.527 l 1 0 c 0.789 0 1.383 -0.141 1.793 -0.41 c 0.398 -0.281 0.598 -0.758 0.598 -1.426 c 0 -0.633 -0.199 -1.082 -0.598 -1.34 c -0.395 -0.266 -0.91 -0.402 -1.57 -0.402" style="fill:#fff;fill-opacity:1;stroke:none;fill-rule:nonzero"/>
  <path d="m 31.598 60.39 c 0.414 0 0.758 -0.035 1.023 -0.102 c 0.285 -0.082 0.5 -0.191 0.66 -0.316 c 0.164 -0.141 0.266 -0.301 0.324 -0.457 c 0.066 -0.176 0.098 -0.359 0.098 -0.535 c 0 -0.223 -0.074 -0.418 -0.223 -0.602 c -0.141 -0.172 -0.336 -0.324 -0.559 -0.457 c -0.227 -0.133 -0.484 -0.258 -0.758 -0.367 c -0.285 -0.117 -0.566 -0.223 -0.844 -0.316 c -0.375 -0.117 -0.766 -0.25 -1.168 -0.406 c -0.398 -0.152 -0.766 -0.344 -1.098 -0.578 c -0.328 -0.242 -0.594 -0.523 -0.801 -0.867 c -0.219 -0.348 -0.324 -0.781 -0.324 -1.301 c 0 -1.023 0.375 -1.824 1.125 -2.398 c 0.758 -0.574 1.801 -0.859 3.125 -0.859 c 0.758 0 1.426 0.074 1.984 0.227 c 0.574 0.148 1.059 0.324 1.441 0.508 l -0.719 1.676 c -0.332 -0.16 -0.707 -0.301 -1.125 -0.418 c -0.398 -0.125 -0.867 -0.184 -1.398 -0.184 c -1.316 0 -1.969 0.418 -1.969 1.25 c 0 0.219 0.066 0.402 0.199 0.566 c 0.137 0.152 0.301 0.293 0.504 0.426 c 0.215 0.117 0.449 0.227 0.699 0.316 c 0.266 0.094 0.531 0.184 0.781 0.27 c 0.395 0.125 0.793 0.273 1.203 0.434 c 0.434 0.156 0.816 0.363 1.164 0.633 c 0.359 0.258 0.66 0.59 0.887 0.992 c 0.223 0.383 0.34 0.883 0.34 1.473 c 0 1.027 -0.383 1.82 -1.141 2.387 c -0.75 0.551 -1.895 0.824 -3.434 0.824 c -1.027 0 -1.852 -0.09 -2.469 -0.285 c -0.609 -0.199 -1.074 -0.383 -1.383 -0.539 l 0.723 -1.77 c 0.359 0.191 0.793 0.367 1.285 0.535 c 0.508 0.156 1.125 0.242 1.844 0.242" style="fill:#fff;fill-opacity:1;stroke:none;fill-rule:nonzero"/>
  <path d="m 40.523 60.22 c 0.066 0.016 0.133 0.016 0.219 0.016 c 0.082 0 0.156 0 0.223 0 c 0.559 0 1.027 -0.09 1.402 -0.281 c 0.383 -0.184 0.691 -0.441 0.926 -0.777 c 0.23 -0.324 0.406 -0.707 0.5 -1.156 c 0.105 -0.461 0.156 -0.961 0.156 -1.504 c 0 -0.465 -0.043 -0.922 -0.117 -1.367 c -0.082 -0.449 -0.223 -0.84 -0.426 -1.184 c -0.199 -0.34 -0.473 -0.605 -0.824 -0.809 c -0.34 -0.215 -0.793 -0.316 -1.34 -0.316 c -0.109 0 -0.227 0 -0.359 0.02 c -0.133 0 -0.258 0.008 -0.359 0.031 l 0 7.328 m 5.934 -3.703 c 0 1.02 -0.148 1.879 -0.441 2.594 c -0.281 0.711 -0.672 1.285 -1.184 1.727 c -0.508 0.449 -1.117 0.773 -1.824 0.992 c -0.691 0.191 -1.469 0.289 -2.309 0.289 c -0.441 0 -0.875 -0.016 -1.301 -0.066 c -0.418 -0.031 -0.859 -0.098 -1.344 -0.191 l 0 -10.645 c 0.559 -0.098 1.086 -0.176 1.586 -0.207 c 0.492 -0.035 0.949 -0.059 1.383 -0.059 c 0.816 0 1.559 0.109 2.227 0.324 c 0.684 0.211 1.258 0.543 1.727 1 c 0.465 0.449 0.824 1.027 1.082 1.727 c 0.266 0.691 0.398 1.535 0.398 2.516" style="fill:#fff;fill-opacity:1;stroke:none;fill-rule:nonzero"/>
 </g>
</svg>
